raw.svg

<svg fill="currentColor" viewBox="0 0 24 24"><path d="M6.5 9c.8 0 1.5.7 1.5 1.5v1c0 .6-.4 1.1-.9 1.4L8 15H6.5l-.9-2H4.5v2H3V9zm0 2.5v-1h-2v1zM10.25 9h2.5l1.5 6h-1.5l-.37-1.5h-1.75l-.38 1.5h-1.5zm.75 3h1l-.25-1h-.5zm9-3h1.5L20 15h-1.5l-.76-3.04L17 15h-1.5L14 9h1.5l.74 3L17 9h1.5l.74 3z"/></svg>

<svg  viewBox="0 0 24 24" fill="currentColor"><path  d="M6.5 9C7.3 9 8 9.7 8 10.5V11.5C8 12.1 7.6 12.6 7.1 12.9L8 15H6.5L5.6 13H4.5V15H3V9H6.5M6.5 11.5V10.5H4.5V11.5H6.5M10.25 9H12.75L14.25 15H12.75L12.38 13.5H10.63L10.25 15H8.75L10.25 9M11 12H12L11.75 11H11.25L11 12M20 9H21.5L20 15H18.5L17.74 11.96L17 15H15.5L14 9H15.5L16.24 12L17 9H18.5L19.24 12L20 9Z"/></svg>
